flaticon/pins-and-locations/pin-14.svg

<svg xmlns="http://www.w3.org/2000/svg" width="32" height="32" viewBox="0 0 24 24">
    <path d="M 18.398438 6.398438 C 18.398438 2.878906 15.519531 0 12 0 C 8.480469 0 5.601562 2.878906 5.601562 6.398438 C 5.601562 9.242188 7.480469 11.667969 10.058594 12.496094 L 10.800781 22.839844 C 10.839844 23.519531 11.359375 24 12 24 C 12.640625 24 13.160156 23.519531 13.199219 22.839844 L 13.984375 12.484375 C 16.539062 11.640625 18.398438 9.226562 18.398438 6.398438 Z M 12.398438 22.761719 C 12.398438 23 12.238281 23.199219 12 23.199219 C 11.761719 23.199219 11.601562 22.960938 11.601562 22.761719 L 10.882812 12.703125 C 11.246094 12.765625 11.617188 12.800781 12 12.800781 C 12.007812 12.800781 12.015625 12.800781 12.023438 12.800781 C 12.167969 12.800781 12.308594 12.796875 12.449219 12.785156 C 12.675781 12.769531 12.898438 12.742188 13.117188 12.703125 Z M 12 12 C 8.921875 12 6.398438 9.480469 6.398438 6.398438 C 6.398438 3.320312 8.921875 0.800781 12 0.800781 C 15.078125 0.800781 17.601562 3.320312 17.601562 6.398438 C 17.601562 9.480469 15.078125 12 12 12 Z M 12 12"/>
    <path d="M 13.320312 7.320312 L 12.398438 8.238281 L 12.398438 3.601562 C 12.398438 3.359375 12.238281 3.199219 12 3.199219 C 11.761719 3.199219 11.601562 3.359375 11.601562 3.601562 L 11.601562 8.238281 L 10.679688 7.320312 C 10.519531 7.160156 10.28125 7.160156 10.121094 7.320312 C 9.960938 7.480469 9.960938 7.71875 10.121094 7.878906 L 11.652344 9.410156 C 11.71875 9.527344 11.839844 9.601562 12 9.601562 C 12.160156 9.601562 12.28125 9.527344 12.347656 9.410156 L 13.878906 7.878906 C 14.039062 7.71875 14.039062 7.480469 13.878906 7.320312 C 13.71875 7.160156 13.480469 7.160156 13.320312 7.320312 Z M 13.320312 7.320312"/>
</svg>

<svg xmlns="http://www.w3.org/2000/svg" width="32" height="32" viewBox="0 0 24 24">
    <path d="M18.398 6.398C18.398 2.878 15.52 0 12 0 8.48 0 5.602 2.879 5.602 6.398c0 2.844 1.878 5.27 4.457 6.098L10.8 22.84c.039.68.558 1.16 1.199 1.16.64 0 1.16-.48 1.2-1.16l.784-10.356c2.555-.843 4.414-3.257 4.414-6.086zm-6 16.364c0 .238-.16.437-.398.437-.238 0-.398-.238-.398-.437l-.72-10.059c.364.063.735.098 1.118.098h.023a6.239 6.239 0 0 0 1.094-.098zM12 12c-3.078 0-5.602-2.52-5.602-5.602C6.398 3.32 8.922.801 12 .801c3.078 0 5.602 2.52 5.602 5.597C17.602 9.48 15.078 12 12 12zm0 0"/>
    <path d="M13.32 7.32l-.922.918V3.602c0-.243-.16-.403-.398-.403-.238 0-.398.16-.398.403v4.636l-.922-.918a.385.385 0 0 0-.559 0 .385.385 0 0 0 0 .559l1.531 1.531a.382.382 0 0 0 .348.192c.16 0 .281-.075.348-.192l1.53-1.531a.385.385 0 0 0 0-.559.385.385 0 0 0-.558 0zm0 0"/>
</svg>
